tools/download-figma-icons/icons/outlined-large/fax.svg

<svg width="64" height="64" viewBox="0 0 64 64" fill="none" xmlns="http://www.w3.org/2000/svg">
<path d="M59.5 17H55V6.5C55 6.10218 54.842 5.72064 54.5607 5.43934C54.2794 5.15804 53.8978 5 53.5 5H26.5C26.1022 5 25.7206 5.15804 25.4393 5.43934C25.158 5.72064 25 6.10218 25 6.5V17H19V14C19 13.2044 18.6839 12.4413 18.1213 11.8787C17.5587 11.3161 16.7956 11 16 11H9C8.20435 11 7.44129 11.3161 6.87868 11.8787C6.31607 12.4413 6 13.2044 6 14V17H4.5C3.30734 17.0026 2.16428 17.4776 1.32094 18.3209C0.477596 19.1643 0.00264157 20.3073 0 21.5L0 55.5C0.00264157 56.6927 0.477596 57.8357 1.32094 58.6791C2.16428 59.5224 3.30734 59.9974 4.5 60H59.5C60.6927 59.9974 61.8357 59.5224 62.6791 58.6791C63.5224 57.8357 63.9974 56.6927 64 55.5V21.5C63.9974 20.3073 63.5224 19.1643 62.6791 18.3209C61.8357 17.4776 60.6927 17.0026 59.5 17ZM28 17V8H52V33H28V17ZM9 17V14H16V51H9V17ZM61 55.5C61 55.8978 60.842 56.2794 60.5607 56.5607C60.2794 56.842 59.8978 57 59.5 57H4.5C4.10218 57 3.72064 56.842 3.43934 56.5607C3.15804 56.2794 3 55.8978 3 55.5V21.5C3 21.1022 3.15804 20.7206 3.43934 20.4393C3.72064 20.158 4.10218 20 4.5 20H6V51C6 51.7957 6.31607 52.5587 6.87868 53.1213C7.44129 53.6839 8.20435 54 9 54H16C16.7956 54 17.5587 53.6839 18.1213 53.1213C18.6839 52.5587 19 51.7957 19 51V20H25V33H23.5C23.1022 33 22.7206 33.158 22.4393 33.4393C22.158 33.7206 22 34.1022 22 34.5C22 34.8978 22.158 35.2794 22.4393 35.5607C22.7206 35.842 23.1022 36 23.5 36H56.5C56.8978 36 57.2794 35.842 57.5607 35.5607C57.842 35.2794 58 34.8978 58 34.5C58 34.1022 57.842 33.7206 57.5607 33.4393C57.2794 33.158 56.8978 33 56.5 33H55V20H59.5C59.8978 20 60.2794 20.158 60.5607 20.4393C60.842 20.7206 61 21.1022 61 21.5V55.5Z" fill="black"/>
<path d="M32.5 42H29.5C29.1022 42 28.7206 42.158 28.4393 42.4393C28.158 42.7206 28 43.1022 28 43.5C28 43.8978 28.158 44.2794 28.4393 44.5607C28.7206 44.842 29.1022 45 29.5 45H32.5C32.8978 45 33.2794 44.842 33.5607 44.5607C33.842 44.2794 34 43.8978 34 43.5C34 43.1022 33.842 42.7206 33.5607 42.4393C33.2794 42.158 32.8978 42 32.5 42Z" fill="black"/>
<path d="M41.5 42H38.5C38.1022 42 37.7206 42.158 37.4393 42.4393C37.158 42.7206 37 43.1022 37 43.5C37 43.8978 37.158 44.2794 37.4393 44.5607C37.7206 44.842 38.1022 45 38.5 45H41.5C41.8978 45 42.2794 44.842 42.5607 44.5607C42.842 44.2794 43 43.8978 43 43.5C43 43.1022 42.842 42.7206 42.5607 42.4393C42.2794 42.158 41.8978 42 41.5 42Z" fill="black"/>
<path d="M32.5 14H46.5C46.8978 14 47.2794 13.842 47.5607 13.5607C47.842 13.2794 48 12.8978 48 12.5C48 12.1022 47.842 11.7206 47.5607 11.4393C47.2794 11.158 46.8978 11 46.5 11H32.5C32.1022 11 31.7206 11.158 31.4393 11.4393C31.158 11.7206 31 12.1022 31 12.5C31 12.8978 31.158 13.2794 31.4393 13.5607C31.7206 13.842 32.1022 14 32.5 14Z" fill="black"/>
<path d="M32.5 20H39.5C39.8978 20 40.2794 19.842 40.5607 19.5607C40.842 19.2794 41 18.8978 41 18.5C41 18.1022 40.842 17.7206 40.5607 17.4393C40.2794 17.158 39.8978 17 39.5 17H32.5C32.1022 17 31.7206 17.158 31.4393 17.4393C31.158 17.7206 31 18.1022 31 18.5C31 18.8978 31.158 19.2794 31.4393 19.5607C31.7206 19.842 32.1022 20 32.5 20Z" fill="black"/>
<path d="M32.5 26H44.5C44.8978 26 45.2794 25.842 45.5607 25.5607C45.842 25.2794 46 24.8978 46 24.5C46 24.1022 45.842 23.7206 45.5607 23.4393C45.2794 23.158 44.8978 23 44.5 23H32.5C32.1022 23 31.7206 23.158 31.4393 23.4393C31.158 23.7206 31 24.1022 31 24.5C31 24.8978 31.158 25.2794 31.4393 25.5607C31.7206 25.842 32.1022 26 32.5 26Z" fill="black"/>
<path d="M50.5 42H47.5C47.1022 42 46.7206 42.158 46.4393 42.4393C46.158 42.7206 46 43.1022 46 43.5C46 43.8978 46.158 44.2794 46.4393 44.5607C46.7206 44.842 47.1022 45 47.5 45H50.5C50.8978 45 51.2794 44.842 51.5607 44.5607C51.842 44.2794 52 43.8978 52 43.5C52 43.1022 51.842 42.7206 51.5607 42.4393C51.2794 42.158 50.8978 42 50.5 42Z" fill="black"/>
<path d="M32.5 48H29.5C29.1022 48 28.7206 48.158 28.4393 48.4393C28.158 48.7206 28 49.1022 28 49.5C28 49.8978 28.158 50.2794 28.4393 50.5607C28.7206 50.842 29.1022 51 29.5 51H32.5C32.8978 51 33.2794 50.842 33.5607 50.5607C33.842 50.2794 34 49.8978 34 49.5C34 49.1022 33.842 48.7206 33.5607 48.4393C33.2794 48.158 32.8978 48 32.5 48Z" fill="black"/>
<path d="M41.5 48H38.5C38.1022 48 37.7206 48.158 37.4393 48.4393C37.158 48.7206 37 49.1022 37 49.5C37 49.8978 37.158 50.2794 37.4393 50.5607C37.7206 50.842 38.1022 51 38.5 51H41.5C41.8978 51 42.2794 50.842 42.5607 50.5607C42.842 50.2794 43 49.8978 43 49.5C43 49.1022 42.842 48.7206 42.5607 48.4393C42.2794 48.158 41.8978 48 41.5 48Z" fill="black"/>
<path d="M50.5 48H47.5C47.1022 48 46.7206 48.158 46.4393 48.4393C46.158 48.7206 46 49.1022 46 49.5C46 49.8978 46.158 50.2794 46.4393 50.5607C46.7206 50.842 47.1022 51 47.5 51H50.5C50.8978 51 51.2794 50.842 51.5607 50.5607C51.842 50.2794 52 49.8978 52 49.5C52 49.1022 51.842 48.7206 51.5607 48.4393C51.2794 48.158 50.8978 48 50.5 48Z" fill="black"/>
</svg>

<svg xmlns="http://www.w3.org/2000/svg" width="64" height="64" fill="none" viewBox="0 0 64 64"><path fill="currentColor" d="M59.5 17H55V6.5A1.5 1.5 0 0 0 53.5 5h-27A1.5 1.5 0 0 0 25 6.5V17h-6v-3a3 3 0 0 0-3-3H9a3 3 0 0 0-3 3v3H4.5A4.51 4.51 0 0 0 0 21.5v34A4.51 4.51 0 0 0 4.5 60h55a4.51 4.51 0 0 0 4.5-4.5v-34a4.51 4.51 0 0 0-4.5-4.5M28 17V8h24v25H28zM9 17v-3h7v37H9zm52 38.5a1.5 1.5 0 0 1-1.5 1.5h-55A1.5 1.5 0 0 1 3 55.5v-34A1.5 1.5 0 0 1 4.5 20H6v31a3 3 0 0 0 3 3h7a3 3 0 0 0 3-3V20h6v13h-1.5a1.5 1.5 0 1 0 0 3h33a1.5 1.5 0 1 0 0-3H55V20h4.5a1.5 1.5 0 0 1 1.5 1.5z"/><path fill="currentColor" d="M32.5 42h-3a1.5 1.5 0 1 0 0 3h3a1.5 1.5 0 1 0 0-3m9 0h-3a1.5 1.5 0 1 0 0 3h3a1.5 1.5 0 1 0 0-3m-9-28h14a1.5 1.5 0 1 0 0-3h-14a1.5 1.5 0 1 0 0 3m0 6h7a1.5 1.5 0 1 0 0-3h-7a1.5 1.5 0 1 0 0 3m0 6h12a1.5 1.5 0 1 0 0-3h-12a1.5 1.5 0 1 0 0 3m18 16h-3a1.5 1.5 0 1 0 0 3h3a1.5 1.5 0 1 0 0-3m-18 6h-3a1.5 1.5 0 1 0 0 3h3a1.5 1.5 0 1 0 0-3m9 0h-3a1.5 1.5 0 1 0 0 3h3a1.5 1.5 0 1 0 0-3m9 0h-3a1.5 1.5 0 1 0 0 3h3a1.5 1.5 0 1 0 0-3"/></svg>
